X:108
%%vocalfont Baskerville10Pro 11
%%pagewidth 7in
%%staffscale 0.9
T:Heart's-Ease
M:6/8
L:1/8
K:Bb
%%score 1 2
V:1 clef-treble
V:2 clef-bass octave=-1
V:1
D|(G>A)B A2G&D3E3|^F2GA2D&D3-D2x|[DG]2[DA][DB]2[Gc]|
w:Sing care* a-way with sport and play, Pas-time is all our
V:2
z|[GB]3[Cc]3|[DA]3-[DA]2c|B2^FG2E|
V:1
[^FAd]3-[FAd]2D|(G>A)BA2G&[B,D]3[CE]3|^F2GA2D&D3-D2x|[DG]2[DA][DB]2[Gc]|[FAd]3-[FAd]2||
w:pleasure;* If well* we fare, For naught we care, In mirth con-sists our treasure.*
V:2
D3-D2z|G,3C3|[DA]3-[DA]2c|B2^FG2E|D3-D2||
V:1
!f!d|(A>B)cc2c&=F6|f2cc2A&F3-F2x|[FB]2[EA][DFB]2[FAc]|[FBd]3-[FBd]2!p!d|
w:Let lun-*gis lurk, And drudges* work, We do de-fy their slavery:* He
w:|[lankies]||||
V:2
z|[Fc]6|[EA]3-[EA]2E|D2CB,2F,|B,,3-B,,2z|
V:1
c2B (A>B)c&G3F3|B2A (G>A)B&F3E3|A2G (^F=E)F&E3C3|[B,G]3-[B,G]2||
w:is but~a fool* That goes to school,* All we de-light* in bravery.*
V:2
[Ec]3F>GA&x3F3|[DB]3E>FG&x3E3|[CA]3[DA]3|[G,G]3-[G,G]2||

